img/subtract-4.svg

<svg fill="none" height="25" viewBox="0 0 24 25" width="24" xmlns="http://www.w3.org/2000/svg"><path clip-rule="evenodd" d="m16.7623 18.7946c3.0071-.3591 5.6254-2.2119 5.9545-3.9049.5185-2.6669.4757-6.50816.4757-6.50816 0-5.20634-3.411-6.73239-3.411-6.73239-1.7199-.789927-4.6732-1.122112-7.7415-1.147197h-.0754c-3.06827.025085-6.01966.35727-7.73967 1.147197 0 0-3.411194 1.52605-3.411194 6.73239 0 .31562-.001631.6476-.003329.9932-.004717.95976-.00995 2.02466.017811 3.13616.123875 5.0915.933452 10.1094 5.640932 11.3554 2.17051.5745 4.03405.6948 5.53485.6123 2.7218-.1509 4.2496-.9714 4.2496-.9714l-.0897-1.9747s-1.945.6133-4.1293.5385c-2.16422-.0742-4.44891-.2333-4.79894-2.8904-.03232-.2334-.04848-.483-.04848-.7451 0 0 2.12448.5193 4.81682.6427 1.6464.0755 3.1903-.0965 4.7583-.2836zm2.4067-3.7053v-6.30401c0-1.28839-.3281-2.31223-.9869-3.06969-.6796-.75747-1.5695-1.14578-2.674-1.14578-1.2782 0-2.246.49123-2.8858 1.47382l-.6222 1.04285-.6221-1.04285c-.6399-.98259-1.60779-1.47382-2.88584-1.47382-1.10466 0-1.99453.38831-2.67403 1.14578-.65894.75746-.98698 1.7813-.98698 3.06969v6.30401h2.49752v-6.11871c0-1.28982.54269-1.94449 1.62821-1.94449 1.20022 0 1.80182.77661 1.80182 2.31223v3.34917h2.4828v-3.34917c0-1.53562.6016-2.31223 1.8018-2.31223 1.0855 0 1.6282.65467 1.6282 1.94449v6.11871z" fill="#000" fill-rule="evenodd"/></svg>

<svg width="24" height="25" viewBox="0 0 24 25" fill="none" xmlns="http://www.w3.org/2000/svg">
<path fill-rule="evenodd" clip-rule="evenodd" d="M16.7623 18.7946C19.7694 18.4355 22.3877 16.5827 22.7168 14.8897C23.2353 12.2228 23.1925 8.38154 23.1925 8.38154C23.1925 3.1752 19.7815 1.64915 19.7815 1.64915C18.0616 0.859223 15.1083 0.527038 12.04 0.501953H11.9646C8.89633 0.527038 5.94494 0.859223 4.22493 1.64915C4.22493 1.64915 0.813736 3.1752 0.813736 8.38154C0.813736 8.69716 0.812105 9.02914 0.810407 9.37474C0.80569 10.3345 0.800457 11.3994 0.828218 12.5109C0.952093 17.6024 1.76167 22.6203 6.46915 23.8663C8.63966 24.4408 10.5032 24.5611 12.004 24.4786C14.7258 24.3277 16.2536 23.5072 16.2536 23.5072L16.1639 21.5325C16.1639 21.5325 14.2189 22.1458 12.0346 22.071C9.87038 21.9968 7.58569 21.8377 7.23566 19.1806C7.20334 18.9472 7.18718 18.6976 7.18718 18.4355C7.18718 18.4355 9.31166 18.9548 12.004 19.0782C13.6504 19.1537 15.1943 18.9817 16.7623 18.7946ZM19.169 15.0893V8.78529C19.169 7.4969 18.8409 6.47306 18.1821 5.7156C17.5025 4.95813 16.6126 4.56982 15.5081 4.56982C14.2299 4.56982 13.2621 5.06105 12.6223 6.04364L12.0001 7.08649L11.378 6.04364C10.7381 5.06105 9.77021 4.56982 8.49216 4.56982C7.3875 4.56982 6.49763 4.95813 5.81813 5.7156C5.15919 6.47306 4.83115 7.4969 4.83115 8.78529V15.0893H7.32867V8.97059C7.32867 7.68077 7.87136 7.0261 8.95688 7.0261C10.1571 7.0261 10.7587 7.80271 10.7587 9.33833V12.6875H13.2415V9.33833C13.2415 7.80271 13.8431 7.0261 15.0433 7.0261C16.1288 7.0261 16.6715 7.68077 16.6715 8.97059V15.0893H19.169Z" fill="black"/>
</svg>
